X:1
T:Title
%%score ( 1 2 ) { 3 | 4 }
L:1/8
M:4/4
K:F
V:1 treble nm="Bright Piano"
V:2 treble 
V:3 bass nm="Bright Piano"
V:4 bass 
V:1
 z4 z2[Q:1/4=100] C2 | [CF]3 C [FA]3 [EG] | F2- [DF]2 C2 FG | [FA]2 [FA]2 [GB]2 [FA]2 | %4
 [EG]4 z2 [EG]2 | [FA]3 [EG] [FA]2 [GB]2 | [Ac]4 [Bd]2 [GB]2 | [FA]2 [FA]2 [EG]2 [EG]2 | F6 z2 | %9
 [EG]2 [CE]>[DF] [EG]2 [FA]2 | [EG]3 [CE] C2 C2 | [EB]3 [GB] [FA]3 [FA] | [EG]4 z2 [EG]2 | %13
 [FA]3 [EG] [FA]2 [GB]2 | c2- [Fc]2 [Fd]2 [GB]2 | [FA]2 [FA]2 [EG]2 [EG]2 | [DF]4 [EG]4 | %17
 [FA]3 [EG] [FA]2 [GB]2 | [Ac]4 [Bd]2 [GB]2 | [FA]2 [FA]2 [EG]2 [EG]2 |[M:3/4] F6 |] %21
V:2
 x8 | x8 | C2 z2 z2 C2 | x8 | x8 | x8 | x8 | x8 | x8 | x8 | x8 | x8 | x8 | x8 | A2 z2 z4 | x8 | %16
 x8 | x8 | x8 | x8 |[M:3/4] x6 |] %21
V:3
 z4 z2 C,2 | A,3 F, C3 B, | A,2 B,2 A,2 A,B, | C2 C2 C2 C2 | C4 z2 C2 | C3 C C2 C2 | C2 F2 F2 D2 | %7
 C2 C2 B,2 B,2 | A,6 z2 | C2 G,>G, C2 C2 | C3[K:bass] G, E,2 C2 | C3 C[K:treble] C3 C | C4 z2 C2 | %13
 C3 C C2 C2 | C2 A,2 B,2 D2 | C2 C2[K:bass] B,2 B,2 | A,4 C4 | C3[K:treble] C C2 C2 | C2 F2 F2 D2 | %19
 C2[K:bass] C2 B,A, B,2 |[M:3/4] A,6 |] %21
V:4
 z8 | F,,3 A,, C,3 C, | F,4 F,2 F,2 | F,2 F,2 E,2 F,2 | C,4 z2 C,2 | F,3 B, A,2 G,2 | %6
 F,4 B,2 B,,2 | C,2 C,2 C,2 C,2 | F,6 z2 | C,2 C,>C, C,2 C,2 | C,4 C,2 C,2 | G,3 E, F,3 A,, | %12
 C,4 z2 C,2 | F,3 B, A,2 G,2 | F,4 B,,2 B,,2 | C,2 C,2 C,2 C,2 | D,4 C,4 | F,3 B, A,2 G,2 | %18
 F,4 B,2 B,2 | z4 C,2 C,2 |[M:3/4] [F,,F,]6 |] %21

